X: 25216
T: Malin Plaisir
R: mazurka
M: 3/4
K: Gmajor
|:G2 B2 d2|c>B A>G A>B|d>f a2 (3f/g/f2|g2 d4|
c>d e>f g2|B>d e>f (3g/a/g2|d>f a2 (3f/g/f2|1 g2 (3G/A/G2- G2:|2 g2 g4||
|:(3d/e/d2 f2 a2|g2 e2 B2|^d>f b>d f>b|g2 e4|
d>f a>d f>a|g2 e2 (3c/d/c2|d>f a2 f2|1 g2 g4:|2 g2 G4||

